src/scalable/apps/elisa.svg

<?xml version="1.0" encoding="UTF-8"?>
<svg width="64" height="64" enable-background="new" version="1.0" viewBox="0 0 64 64" xmlns="http://www.w3.org/2000/svg" xmlns:cc="http://creativecommons.org/ns#" xmlns:dc="http://purl.org/dc/elements/1.1/" xmlns:rdf="http://www.w3.org/1999/02/22-rdf-syntax-ns#">
 <title>Adwaita Icon Template</title>
 <circle cx="32" cy="32" r="27" fill="#333" stroke-width="3.7796" style="paint-order:stroke fill markers"/>
 <circle cx="32" cy="32" r="25" fill="#fff" opacity=".1" stroke-width="3.4996" style="paint-order:stroke fill markers"/>
 <path d="m19.143 46-0.89062 6.8574a25 25 0 0 0 13.748 4.1426 25 25 0 0 0 13.746-4.1406l-0.88867-6.8594h-25.715z" fill="#fff" opacity=".15"/>
 <path d="m17.041 12a25 25 0 0 0-7.4746 9h44.865a25 25 0 0 0-7.4824-9h-29.908zm-9.0293 27a25 25 0 0 0 3.3027 7h41.389a25 25 0 0 0 3.291-7h-47.982z" fill="#82dbab"/>
 <path d="m9.584 21a25 25 0 0 0-2.584 11 25 25 0 0 0 1.0137 7h47.969a25 25 0 0 0 1.0176-7 25 25 0 0 0-2.5684-11h-44.848z" enable-background="new" fill="#4d4d4d"/>
 <circle cx="19" cy="30" r="4" enable-background="new" fill="#f6f5f4"/>
 <circle cx="45.818" cy="30" r="4" enable-background="new" fill="#f6f5f4"/>
 <rect x="25" y="26" width="14" height="8" enable-background="new" fill="#949390"/>
 <path d="m25 26v8h8.222c0.28198-1.2899 0.44153-2.6255 0.44153-4s-0.15955-2.7101-0.44153-4z" enable-background="new" fill="#424048" opacity=".5"/>
 <metadata>
  <rdf:RDF>
   <cc:Work rdf:about="">
    <dc:title>Adwaita Icon Template</dc:title>
   </cc:Work>
  </rdf:RDF>
 </metadata>
</svg>

<svg width="64" height="64" version="1.0" xmlns="http://www.w3.org/2000/svg"><circle cx="32" cy="32" r="27" fill="#333" style="paint-order:stroke fill markers"/><circle cx="32" cy="32" r="25" fill="#fff" opacity=".1" style="paint-order:stroke fill markers"/><path d="m19.143 46-.89 6.857A25 25 0 0 0 32 57a25 25 0 0 0 13.746-4.14L44.858 46H19.143z" fill="#fff" opacity=".15"/><path d="M17.041 12a25 25 0 0 0-7.475 9h44.865a25 25 0 0 0-7.482-9H17.041zm-9.03 27a25 25 0 0 0 3.303 7h41.39a25 25 0 0 0 3.29-7H8.012z" fill="#82dbab"/><path d="M9.584 21A25 25 0 0 0 7 32a25 25 0 0 0 1.014 7h47.969A25 25 0 0 0 57 32a25 25 0 0 0-2.568-11H9.584z" fill="#4d4d4d"/><circle cx="19" cy="30" r="4" fill="#f6f5f4"/><circle cx="45.818" cy="30" r="4" fill="#f6f5f4"/><path fill="#949390" d="M25 26h14v8H25z"/><path d="M25 26v8h8.222c.282-1.29.442-2.626.442-4s-.16-2.71-.442-4z" fill="#424048" opacity=".5"/></svg>
